img/pseudo-ui/peer-to-peer.svg

<?xml version="1.0" encoding="UTF-8"?>
<svg width="197px" height="199px" viewBox="0 0 197 199" version="1.1" xmlns="http://www.w3.org/2000/svg" xmlns:xlink="http://www.w3.org/1999/xlink">
    <!-- Generator: Sketch 49.1 (51147) - http://www.bohemiancoding.com/sketch -->
    <title>peer-to-peer</title>
    <desc>Created with Sketch.</desc>
    <defs>
        <filter x="-4.9%" y="-3.7%" width="109.7%" height="109.6%" filterUnits="objectBoundingBox" id="filter-1">
            <feOffset dx="0" dy="2" in="SourceAlpha" result="shadowOffsetOuter1"></feOffset>
            <feGaussianBlur stdDeviation="2" in="shadowOffsetOuter1" result="shadowBlurOuter1"></feGaussianBlur>
            <feColorMatrix values="0 0 0 0 0.341176471   0 0 0 0 0.262745098   0 0 0 0 1  0 0 0 0.2 0" type="matrix" in="shadowBlurOuter1" result="shadowMatrixOuter1"></feColorMatrix>
            <feMerge>
                <feMergeNode in="shadowMatrixOuter1"></feMergeNode>
                <feMergeNode in="SourceGraphic"></feMergeNode>
            </feMerge>
        </filter>
        <filter x="-8.0%" y="-2.7%" width="110.6%" height="110.6%" filterUnits="objectBoundingBox" id="filter-2">
            <feOffset dx="-6" dy="6" in="SourceAlpha" result="shadowOffsetOuter1"></feOffset>
            <feColorMatrix values="0 0 0 0 0.888671875   0 0 0 0 0.904575893   0 0 0 0 1  0 0 0 1 0" type="matrix" in="shadowOffsetOuter1" result="shadowMatrixOuter1"></feColorMatrix>
            <feMerge>
                <feMergeNode in="shadowMatrixOuter1"></feMergeNode>
                <feMergeNode in="SourceGraphic"></feMergeNode>
            </feMerge>
        </filter>
    </defs>
    <g id="Page-1" stroke="none" stroke-width="1" fill="none" fill-rule="evenodd">
        <g id="peer-to-peer" filter="url(#filter-1)" transform="translate(6.000000, 4.000000)">
            <path d="M6,7 L177,7 L177,178 L6,178 L6,7 Z" id="Rectangle-18" stroke-opacity="0.2" stroke="#5743FF" stroke-width="5" stroke-linecap="round" stroke-dasharray="3,14,3,14"></path>
            <circle id="Oval-15" stroke="#5743FF" stroke-width="4" fill="#FFFFFF" cx="146" cy="8" r="8"></circle>
            <circle id="Oval-15-Copy" stroke="#5743FF" stroke-width="4" fill="#FFFFFF" cx="8" cy="10" r="8"></circle>
            <circle id="Oval-15-Copy-2" stroke="#5743FF" stroke-width="4" fill="#FFFFFF" cx="177" cy="134" r="8"></circle>
            <circle id="Oval-15-Copy-3" stroke="#5743FF" stroke-width="4" fill="#FFFFFF" cx="33" cy="179" r="8"></circle>
            <g id="internet" filter="url(#filter-2)" transform="translate(38.000000, 35.000000)" fill="#5743FF" fill-rule="nonzero">
                <path d="M83.1298028,98.3280376 C77.5126948,101.916185 71.286554,104.303509 64.830169,105.400087 C65.8129507,104.171146 66.7546174,102.916209 67.6564953,101.638195 C68.0305094,101.108209 67.9562371,100.382462 67.4737324,99.9492958 C66.3760939,98.964392 65.7346995,97.8946056 65.0691667,96.5770681 C64.6296338,95.7072864 63.4142207,95.6261174 62.8699108,96.4346244 C61.9462817,97.8068052 60.9733146,99.1511338 59.9483568,100.462836 L59.9483568,88.1567113 C59.9483568,87.3503263 59.767716,86.5540211 59.4196972,85.8264178 L55.2938709,77.2002207 C54.7522136,76.0678333 53.0516432,76.453784 53.0516432,77.7087207 L53.0516432,80.03477 L41.9192864,80.03477 C39.694831,73.6256009 38.3825986,66.8774319 38.0560657,59.9480915 L45.7336995,59.9480915 C46.215939,59.9480915 46.5512254,59.4716878 46.3907441,59.0170352 C45.8000141,57.3445822 45.7085,55.571331 46.086493,53.8964906 C46.1843732,53.4622629 45.8498826,53.0511127 45.4047793,53.0511127 L38.056331,53.0511127 C38.3828638,46.1217723 39.6950962,39.3736033 41.9195516,32.9644343 L53.0516432,32.9644343 L53.0516432,45.4705634 C53.0516432,46.1880869 53.6694296,46.7453944 54.3840352,46.6809366 C55.7678873,46.556 57.0297207,46.764493 58.3135704,47.2401009 C59.1064272,47.5337418 59.9483568,46.9435423 59.9483568,46.0981643 L59.9483568,32.9644343 L71.0807136,32.9644343 C73.305169,39.3736033 74.6174014,46.1217723 74.9439343,53.0511127 L73.4118028,53.0511127 C72.4757066,53.0511127 72.1693333,54.3076408 73.0006526,54.7384202 L81.1080047,58.9403756 C82.3854883,59.6024601 83.8030282,59.9480915 85.2417887,59.9480915 L105.981533,59.9480915 C105.525023,66.5633662 103.764239,72.8242559 100.957542,78.4787653 C100.225164,80.4114366 99.2455657,81.409338 97.6357136,82.9380211 C96.9709765,83.5690704 96.9563873,84.6250634 97.6044131,85.2730892 L100.752498,88.4211737 C101.471613,89.1402887 102.673232,89.0371033 103.245394,88.1965 C109.610796,78.8416385 113,67.864723 113,56.5 C113,25.3446268 87.6450282,0.00106103286 56.5018568,0 C56.5005305,0 56.4994695,0 56.4981432,0 C25.3361385,0.00106103286 0,25.3639906 0,56.5 C0,87.6901221 25.3902512,113 56.5,113 C68.0230822,113 78.7498592,109.530688 87.6943662,103.584129 C88.3031338,103.179345 88.3901385,102.318582 87.8731502,101.801594 L84.5608709,98.4893146 C84.1799601,98.1081385 83.5839249,98.0381103 83.1298028,98.3280376 Z M100.154871,32.9649648 C103.43081,39.0173615 105.482582,45.8241526 105.981268,53.0516432 L81.8446268,53.0516432 C81.5483333,46.1517465 80.3628944,39.4128615 78.3450751,32.9649648 L100.154871,32.9649648 Z M95.6438897,26.0682512 L75.824061,26.0682512 C73.0521127,19.4768498 69.3647582,13.269277 64.830169,7.59991315 C77.2898779,9.71587793 88.1819108,16.4918991 95.6438897,26.0682512 Z M59.9483568,12.5371643 C63.2433944,16.7542394 66.0280751,21.2906854 68.2748122,26.0682512 L59.9483568,26.0682512 L59.9483568,12.5371643 Z M53.0516432,26.0682512 L44.7251878,26.0682512 C46.9719249,21.2904202 49.7566056,16.7542394 53.0516432,12.5371643 L53.0516432,26.0682512 Z M48.1695657,7.59991315 C43.6349765,13.2695423 39.9478873,19.477115 37.175939,26.0682512 L17.3563756,26.0682512 C24.8180892,16.4918991 35.7101221,9.71587793 48.1695657,7.59991315 Z M12.8451291,32.9649648 L34.6546596,32.9649648 C32.6368404,39.4128615 31.4516667,46.1517465 31.155108,53.0516432 L7.01846714,53.0516432 C7.51741784,45.8241526 9.56892488,39.0173615 12.8451291,32.9649648 Z M12.8451291,80.0350352 C9.56892488,73.9826385 7.51741784,67.1758474 7.01846714,59.9483568 L31.155108,59.9483568 C31.4514014,66.8482535 32.6368404,73.5871385 34.6546596,80.0350352 L12.8451291,80.0350352 Z M17.3561103,86.9317488 L37.1756737,86.9317488 C39.9476221,93.5231502 43.6349765,99.730723 48.1695657,105.400087 C35.7101221,103.284122 24.8180892,96.5081009 17.3561103,86.9317488 Z M53.0516432,100.462836 C49.7566056,96.2457606 46.9719249,91.7093146 44.7251878,86.9317488 L53.0516432,86.9317488 L53.0516432,100.462836 Z" id="Shape"></path>
                <path d="M103.015049,105.950319 C104.588057,104.377404 104.588057,101.827393 103.015049,100.254478 L88.0422012,85.282525 L94.3119469,79.2421903 C95.2464073,78.3418861 95.6900075,77.0466081 95.5033839,75.7626073 C95.3167603,74.4786066 94.5230061,73.3629598 93.3707735,72.7660686 L55.7775401,53.2831966 C54.2286989,52.480092 52.3391019,52.766052 51.0966455,53.9904442 C49.8541891,55.2148364 49.5413597,57.1000244 50.3214193,58.6600504 L69.1183045,96.2510383 C69.6913328,97.3972949 70.7756291,98.202279 72.0387617,98.4192327 C72.2662008,98.4584348 72.4941769,98.4774988 72.7210789,98.4774988 C73.7543558,98.4774988 74.7586322,98.0795713 75.5155988,97.3503061 L82.2402226,90.8720364 L97.3191371,105.95005 C98.1056412,106.736507 99.1365014,107.12987 100.167093,107.12987 C101.197685,107.12987 102.228545,106.736776 103.015049,105.950319 Z M73.8727745,87.7476883 L63.0644513,66.1323333 L84.6810976,77.3352532 L73.8727745,87.7476883 Z" id="Shape"></path>
            </g>
        </g>
    </g>
</svg>

<svg width="197" height="199" xmlns="http://www.w3.org/2000/svg"><defs><filter x="-4.9%" y="-3.7%" width="109.7%" height="109.6%" filterUnits="objectBoundingBox" id="a"><feOffset dy="2" in="SourceAlpha" result="shadowOffsetOuter1"/><feGaussianBlur stdDeviation="2" in="shadowOffsetOuter1" result="shadowBlurOuter1"/><feColorMatrix values="0 0 0 0 0.341176471 0 0 0 0 0.262745098 0 0 0 0 1 0 0 0 0.2 0" in="shadowBlurOuter1" result="shadowMatrixOuter1"/><feMerge><feMergeNode in="shadowMatrixOuter1"/><feMergeNode in="SourceGraphic"/></feMerge></filter><filter x="-8%" y="-2.7%" width="110.6%" height="110.6%" filterUnits="objectBoundingBox" id="b"><feOffset dx="-6" dy="6" in="SourceAlpha" result="shadowOffsetOuter1"/><feColorMatrix values="0 0 0 0 0.888671875 0 0 0 0 0.904575893 0 0 0 0 1 0 0 0 1 0" in="shadowOffsetOuter1" result="shadowMatrixOuter1"/><feMerge><feMergeNode in="shadowMatrixOuter1"/><feMergeNode in="SourceGraphic"/></feMerge></filter></defs><g filter="url(#a)" transform="translate(6 4)" fill="none" fill-rule="evenodd"><path d="M6 7h171v171H6V7z" stroke-opacity=".2" stroke="#5743FF" stroke-width="5" stroke-linecap="round" stroke-dasharray="3,14,3,14"/><circle stroke="#5743FF" stroke-width="4" fill="#FFF" cx="146" cy="8" r="8"/><circle stroke="#5743FF" stroke-width="4" fill="#FFF" cx="8" cy="10" r="8"/><circle stroke="#5743FF" stroke-width="4" fill="#FFF" cx="177" cy="134" r="8"/><circle stroke="#5743FF" stroke-width="4" fill="#FFF" cx="33" cy="179" r="8"/><g filter="url(#b)" transform="translate(38 35)" fill="#5743FF" fill-rule="nonzero"><path d="M83.13 98.328a49.337 49.337 0 0 1-18.3 7.072 78.395 78.395 0 0 0 2.826-3.762c.375-.53.3-1.256-.182-1.689-1.098-.985-1.74-2.054-2.405-3.372-.44-.87-1.655-.95-2.2-.142a70.248 70.248 0 0 1-2.92 4.028V88.157a5.4 5.4 0 0 0-.53-2.33L55.295 77.2c-.542-1.132-2.242-.746-2.242.509v2.326H41.919a71.45 71.45 0 0 1-3.863-20.087h7.678a.697.697 0 0 0 .657-.931 9.25 9.25 0 0 1-.305-5.12.696.696 0 0 0-.681-.846h-7.349a71.45 71.45 0 0 1 3.864-20.087h11.132v12.507c0 .717.617 1.274 1.332 1.21 1.384-.125 2.646.083 3.93.56a1.215 1.215 0 0 0 1.634-1.143V32.964h11.133a71.45 71.45 0 0 1 3.863 20.087h-1.532c-.936 0-1.243 1.257-.411 1.687l8.107 4.202a8.983 8.983 0 0 0 4.134 1.008h20.74a49.231 49.231 0 0 1-5.024 18.53c-.733 1.933-1.712 2.931-3.322 4.46a1.63 1.63 0 0 0-.032 2.335l3.148 3.148c.72.72 1.921.616 2.493-.225A56.174 56.174 0 0 0 113 56.5C113 25.345 87.645.001 56.502 0h-.004C25.336.001 0 25.364 0 56.5 0 87.69 25.39 113 56.5 113c11.523 0 22.25-3.47 31.194-9.416a1.158 1.158 0 0 0 .18-1.782l-3.313-3.313a1.15 1.15 0 0 0-1.431-.161zm17.025-65.363a49.243 49.243 0 0 1 5.826 20.087H81.845a78.463 78.463 0 0 0-3.5-20.087h21.81zm-4.511-6.897h-19.82A77.896 77.896 0 0 0 64.83 7.6c12.46 2.116 23.352 8.892 30.814 18.468zm-35.696-13.53a71.133 71.133 0 0 1 8.327 13.53h-8.327v-13.53zm-6.896 13.53h-8.327a71.125 71.125 0 0 1 8.327-13.53v13.53zM48.17 7.6a77.905 77.905 0 0 0-10.994 18.468h-19.82C24.818 16.492 35.71 9.716 48.17 7.6zM12.845 32.965h21.81a78.475 78.475 0 0 0-3.5 20.087H7.018a49.243 49.243 0 0 1 5.827-20.087zm0 47.07a49.243 49.243 0 0 1-5.827-20.087h24.137a78.463 78.463 0 0 0 3.5 20.087h-21.81zm4.511 6.897h19.82A77.896 77.896 0 0 0 48.17 105.4c-12.46-2.116-23.352-8.892-30.814-18.468zm35.696 13.53a71.133 71.133 0 0 1-8.327-13.53h8.327v13.53z"/><path d="M103.015 105.95a4.027 4.027 0 0 0 0-5.696L88.042 85.283l6.27-6.04a4.027 4.027 0 0 0-.941-6.477L55.778 53.283a4.028 4.028 0 0 0-5.457 5.377l18.797 37.591a4.027 4.027 0 0 0 6.398 1.1l6.724-6.479 15.08 15.078a4.016 4.016 0 0 0 2.847 1.18c1.03 0 2.062-.393 2.848-1.18zM73.873 87.748L63.064 66.132l21.617 11.203-10.808 10.413z"/></g></g></svg>
